X: 1474
T: Fair Haired Mary
R: reel
%S: s:4 b:16(4+4+4+4)
B: O'Neill's 1850 #1474
O: F.O'Neill
Z: Bob Safranek, rjs@gsp.org
Z: Compacted via repeats and multiple endings [JC]
M: C|
L: 1/8
K: Gm
[e Gdd^c  d2(=cB) | AFcF  dFcF    | Gdd^c d2(d=e) | fdcA dcBA ||
|| Gdd^c  d2(=cB) | AFcF  dFcF    | Gdd^c d2(d=e) | fdcA AGG2 |]
[| g2(dg) g2(ag)  | fdd=e f2(fe)  | g2g^f g2ag    | fdcA dBcA ||
|| gdd^f  g2(ag)  | fdd=e f2(^fg) | abag ^fgag    | fdcA AGG2 |]
